icons/svg/beta-active_20.svg

<?xml version="1.0" encoding="UTF-8"?>
<svg width="20px" height="20px" viewBox="0 0 20 20" version="1.1" xmlns="http://www.w3.org/2000/svg" xmlns:xlink="http://www.w3.org/1999/xlink">
    <!-- Generator: Sketch 59.1 (86144) - https://sketch.com -->
    <title>settings/beta-active_20</title>
    <desc>Created with Sketch.</desc>
    <g id="Icons-Webex" stroke="none" stroke-width="1" fill="none" fill-rule="evenodd">
        <g id="settings/beta-active_20" fill="#171B1F">
            <path d="M10,0 C15.5228475,0 20,4.4771525 20,10 C20,15.5228475 15.5228475,20 10,20 C9.20755106,20 8.436631,19.9078239 7.69737668,19.7336085 C7.85588148,19.5236236 7.9603667,19.2714837 7.99079219,18.9971233 L8,18.83 L8,7.5 L8.00548574,7.35073766 C8.08183488,6.31587779 8.9456382,5.5 10,5.5 C11.1045695,5.5 12,6.3954305 12,7.5 C12,8.50164371 11.2636703,9.33130839 10.3027743,9.4772306 L10.1492623,9.49451426 L10,9.5 L9.91012437,9.50805567 C9.67687516,9.55039163 9.5,9.75454011 9.5,10 C9.5,10.2761424 9.72385763,10.5 10,10.5 C11.1045695,10.5 12,11.3954305 12,12.5 C12,13.6045695 11.1045695,14.5 10,14.5 C9.72385763,14.5 9.5,14.7238576 9.5,15 C9.5,15.2761424 9.72385763,15.5 10,15.5 C11.6568542,15.5 13,14.1568542 13,12.5 C13,11.4556117 12.4663229,10.5358703 11.6567985,10.0013944 C12.4663229,9.46412967 13,8.54438831 13,7.5 C13,5.84314575 11.6568542,4.5 10,4.5 C8.40231912,4.5 7.09633912,5.74891996 7.00509269,7.32372721 L7,7.5 L7,18.8 L6.99194433,18.9198756 C6.95490037,19.1239687 6.79396869,19.2849004 6.58987563,19.3219443 L6.5,19.33 L6.42360446,19.3242718 L6.32369456,19.3025923 C2.61991686,17.8376799 0,14.2247972 0,10 C0,4.4771525 4.4771525,0 10,0 Z" id="fill"></path>
        </g>
    </g>
</svg>

<svg width="20" height="20" xmlns="http://www.w3.org/2000/svg"><path d="M10 0c5.523 0 10 4.477 10 10s-4.477 10-10 10c-.792 0-1.563-.092-2.303-.266.159-.21.263-.463.294-.737L8 18.83V7.5l.005-.15a2 2 0 112.298 2.127l-.154.018L10 9.5l-.09.008a.5.5 0 00.09.992 2 2 0 110 4 .5.5 0 100 1 3 3 0 001.657-5.499 3 3 0 10-4.652-2.678L7 7.5v11.3l-.008.12a.5.5 0 01-.402.402l-.09.008-.076-.006-.1-.021A10.003 10.003 0 010 10C0 4.477 4.477 0 10 0z" fill="#171B1F" fill-rule="evenodd"/></svg>
